X:13
T:The Gaelic Club
R:Jig
M:6/8
L:1/8
K:G
(A/B/) | cBA AGE | ABA  ABc | BAG BdG | Bdg GAB | 
         cBA AGE | ABA c2 d | efe dcB | cAA A2 :|
    B  | ceg gec | ceg  dBG | ceg gec | AGG G2 (A/B/) | 
         cBA AGE | ABA c2 d | efe dcB | cAA A2 :|
